Simply black circles/scalable/panel/nm-signal-0-secure.svg

<?xml version="1.0" encoding="UTF-8" standalone="no"?>
<!-- Created with Inkscape (http://www.inkscape.org/) -->

<svg
   xmlns:dc="http://purl.org/dc/elements/1.1/"
   xmlns:cc="http://creativecommons.org/ns#"
   xmlns:rdf="http://www.w3.org/1999/02/22-rdf-syntax-ns#"
   xmlns:svg="http://www.w3.org/2000/svg"
   xmlns="http://www.w3.org/2000/svg"
   xmlns:sodipodi="http://sodipodi.sourceforge.net/DTD/sodipodi-0.dtd"
   xmlns:inkscape="http://www.inkscape.org/namespaces/inkscape"
   version="1.1"
   width="24"
   height="24"
   id="svg2906"
   sodipodi:docname="nm-signal-0-secure.svg"
   inkscape:version="0.92.3 (2405546, 2018-03-11)">
  <sodipodi:namedview
     pagecolor="#ffffff"
     bordercolor="#666666"
     borderopacity="1"
     objecttolerance="10"
     gridtolerance="10"
     guidetolerance="10"
     inkscape:pageopacity="0"
     inkscape:pageshadow="2"
     inkscape:window-width="1366"
     inkscape:window-height="684"
     id="namedview18"
     showgrid="false"
     inkscape:zoom="21.958333"
     inkscape:cx="3.3700188"
     inkscape:cy="11.817837"
     inkscape:window-x="0"
     inkscape:window-y="28"
     inkscape:window-maximized="1"
     inkscape:current-layer="svg2906" />
  <metadata
     id="metadata3009">
    <rdf:RDF>
      <cc:Work
         rdf:about="">
        <dc:format>image/svg+xml</dc:format>
        <dc:type
           rdf:resource="http://purl.org/dc/dcmitype/StillImage" />
        <dc:title></dc:title>
      </cc:Work>
    </rdf:RDF>
  </metadata>
  <defs
     id="defs2908">
    <clipPath
       id="clipPath2915">
      <rect
         width="4.0000005"
         height="15.000033"
         x="-202.00041"
         y="21"
         transform="matrix(0,-1,1,0,0,0)"
         id="rect2917"
         style="color:#000000;fill:#000000;fill-opacity:1;stroke:none;stroke-width:2;marker:none;visibility:visible;display:inline;overflow:visible;enable-background:accumulate" />
    </clipPath>
    <clipPath
       id="clipPath2854">
      <rect
         width="1.1249844"
         height="4.1250067"
         x="27.375002"
         y="221.875"
         id="rect2856"
         style="color:#000000;fill:#000000;fill-opacity:1;stroke:none;stroke-width:2;marker:none;visibility:visible;display:inline;overflow:visible;enable-background:accumulate" />
    </clipPath>
    <clipPath
       id="clipPath2920">
      <path
         d="m 27.545458,222.48863 0,-0.57954 1.738637,0 0,4.05682 -1.738637,0 0,-0.57955 -0.579545,0 0,-2.89773 0.579545,0 z"
         id="path2922"
         style="color:#000000;fill:#000000;fill-opacity:1;fill-rule:nonzero;stroke:none;stroke-width:2;marker:none;visibility:visible;display:inline;overflow:visible;enable-background:accumulate" />
    </clipPath>
    <clipPath
       clipPathUnits="userSpaceOnUse"
       id="clipPath851">
      <ellipse
         style="opacity:1;fill:#cccccc;fill-opacity:1;fill-rule:nonzero;stroke:none;stroke-width:0.37880188;stroke-linecap:round;stroke-linejoin:round;stroke-miterlimit:4;stroke-dasharray:none;stroke-opacity:1;paint-order:normal"
         id="ellipse853"
         cx="7.9909444"
         cy="40.182869"
         rx="7.5484991"
         ry="7.490562" />
    </clipPath>
    <clipPath
       clipPathUnits="userSpaceOnUse"
       id="clipPath835">
      <ellipse
         style="opacity:1;fill:#cccccc;fill-opacity:1;fill-rule:nonzero;stroke:none;stroke-width:0.29710582;stroke-linecap:round;stroke-linejoin:round;stroke-miterlimit:4;stroke-dasharray:none;stroke-opacity:1;paint-order:normal"
         id="ellipse837"
         cx="23.62096"
         cy="24.499601"
         rx="21.006697"
         ry="21.050003" />
    </clipPath>
    <clipPath
       clipPathUnits="userSpaceOnUse"
       id="clipPath831">
      <ellipse
         style="opacity:1;fill:#cccccc;fill-opacity:1;fill-rule:nonzero;stroke:none;stroke-width:0.29710582;stroke-linecap:round;stroke-linejoin:round;stroke-miterlimit:4;stroke-dasharray:none;stroke-opacity:1;paint-order:normal"
         id="ellipse833"
         cx="23.62096"
         cy="24.499601"
         rx="21.006697"
         ry="21.050003" />
    </clipPath>
    <clipPath
       clipPathUnits="userSpaceOnUse"
       id="clipPath827">
      <ellipse
         style="opacity:1;fill:#cccccc;fill-opacity:1;fill-rule:nonzero;stroke:none;stroke-width:0.29710582;stroke-linecap:round;stroke-linejoin:round;stroke-miterlimit:4;stroke-dasharray:none;stroke-opacity:1;paint-order:normal"
         id="ellipse829"
         cx="23.62096"
         cy="24.499601"
         rx="21.006697"
         ry="21.050003" />
    </clipPath>
    <clipPath
       clipPathUnits="userSpaceOnUse"
       id="clipPath827-3">
      <ellipse
         style="opacity:1;fill:#cccccc;fill-opacity:1;fill-rule:nonzero;stroke:none;stroke-width:0.29710582;stroke-linecap:round;stroke-linejoin:round;stroke-miterlimit:4;stroke-dasharray:none;stroke-opacity:1;paint-order:normal"
         id="ellipse829-6"
         cx="23.62096"
         cy="24.499601"
         rx="21.006697"
         ry="21.050003" />
    </clipPath>
    <clipPath
       clipPathUnits="userSpaceOnUse"
       id="clipPath831-7">
      <ellipse
         style="opacity:1;fill:#cccccc;fill-opacity:1;fill-rule:nonzero;stroke:none;stroke-width:0.29710582;stroke-linecap:round;stroke-linejoin:round;stroke-miterlimit:4;stroke-dasharray:none;stroke-opacity:1;paint-order:normal"
         id="ellipse833-5"
         cx="23.62096"
         cy="24.499601"
         rx="21.006697"
         ry="21.050003" />
    </clipPath>
    <clipPath
       clipPathUnits="userSpaceOnUse"
       id="clipPath835-3">
      <ellipse
         style="opacity:1;fill:#cccccc;fill-opacity:1;fill-rule:nonzero;stroke:none;stroke-width:0.29710582;stroke-linecap:round;stroke-linejoin:round;stroke-miterlimit:4;stroke-dasharray:none;stroke-opacity:1;paint-order:normal"
         id="ellipse837-5"
         cx="23.62096"
         cy="24.499601"
         rx="21.006697"
         ry="21.050003" />
    </clipPath>
    <clipPath
       clipPathUnits="userSpaceOnUse"
       id="clipPath851-6">
      <ellipse
         style="opacity:1;fill:#cccccc;fill-opacity:1;fill-rule:nonzero;stroke:none;stroke-width:0.37880188;stroke-linecap:round;stroke-linejoin:round;stroke-miterlimit:4;stroke-dasharray:none;stroke-opacity:1;paint-order:normal"
         id="ellipse853-2"
         cx="7.9909444"
         cy="40.182869"
         rx="7.5484991"
         ry="7.490562" />
    </clipPath>
  </defs>
  <g
     id="g858">
    <g
       style="fill:#216778;fill-opacity:0.3019608"
       id="g1290">
      <g
         style="fill:#216778;fill-opacity:0.3019608"
         id="g1212">
        <g
           style="fill:#216778;fill-opacity:0.3019608"
           id="g1152">
          <path
             transform="matrix(0.39614986,0,0,0.39614986,2.929119,2.7023171)"
             inkscape:connector-curvature="0"
             id="path847-7"
             d="M 25.854164,9.4275925 H -2.3955713 v 0 L 3.1263535,3.9056676 H 25.853245"
             clip-path="url(#clipPath827-3)"
             style="fill:#216778;fill-opacity:0.3019608;stroke:none;stroke-width:1px;stroke-linecap:butt;stroke-linejoin:miter;stroke-opacity:1" />
          <path
             transform="matrix(0.37085563,0,0,0.39614986,3.5834343,2.7023171)"
             inkscape:connector-curvature="0"
             id="path842-2"
             d="M 25.853211,19.81211 H -0.34535193 v 0 L -5.455194,14.702268 h 31.308453"
             clip-path="url(#clipPath831-7)"
             style="fill:#216778;fill-opacity:0.3019608;stroke:none;stroke-width:1px;stroke-linecap:butt;stroke-linejoin:miter;stroke-opacity:1" />
        </g>
        <path
           style="fill:#216778;fill-opacity:0.3019608;stroke:none;stroke-width:1px;stroke-linecap:butt;stroke-linejoin:miter;stroke-opacity:1"
           d="M 2.1226471,26.6951 V 19.119028 L 28.880972,45.877353 H 21.3049 Z"
           id="path826-1"
           inkscape:connector-curvature="0"
           clip-path="url(#clipPath835-3)"
           transform="matrix(0.28012026,-0.28012026,0.28012026,0.28012026,-1.2316009,7.716166)" />
      </g>
      <path
         transform="matrix(0.28012026,-0.28012026,0.28012026,0.28012026,-1.2316009,7.716166)"
         clip-path="url(#clipPath851-6)"
         inkscape:connector-curvature="0"
         id="path821-9"
         d="M 2.1226471,33.966944 V 45.877353 H 14.033056 Z"
         style="fill:#216778;fill-opacity:0.3019608;stroke:none;stroke-width:1px;stroke-linecap:butt;stroke-linejoin:round;stroke-opacity:1" />
    </g>
    <path
       inkscape:connector-curvature="0"
       style="fill:#216778;fill-opacity:1;stroke-width:0.16410218"
       d="m 16.596719,4.3770152 c -0.905843,0 -1.641022,0.7351775 -1.641022,1.6410221 v 0.6564082 h -0.3282 l -0.656412,0.00191 v 3.9365295 c 0,0.362665 0.293739,0.65641 0.656412,0.65641 h 3.938449 c 0.362665,0 0.652471,-0.293765 0.656407,-0.65641 l 0.0417,-3.9227454 -0.698075,-0.015705 h -0.32822 v -0.656393 c 0,-0.9058437 -0.735173,-1.6410212 -1.64102,-1.6410212 z m 0,0.6237166 c 0.561226,0 1.017302,0.4560756 1.017302,1.0173055 V 6.6744455 H 15.57941 V 6.0180373 c 0,-0.5612299 0.45608,-1.0173055 1.017309,-1.0173055 z"
       id="path2-6" />
  </g>
</svg>

<svg xmlns="http://www.w3.org/2000/svg" width="24" height="24"><defs><clipPath id="a"><ellipse cx="23.621" cy="24.5" rx="21.007" ry="21.05" fill="#ccc" stroke-width=".297" stroke-linecap="round" stroke-linejoin="round"/></clipPath><clipPath id="b"><ellipse cx="23.621" cy="24.5" rx="21.007" ry="21.05" fill="#ccc" stroke-width=".297" stroke-linecap="round" stroke-linejoin="round"/></clipPath><clipPath id="c"><ellipse cx="23.621" cy="24.5" rx="21.007" ry="21.05" fill="#ccc" stroke-width=".297" stroke-linecap="round" stroke-linejoin="round"/></clipPath><clipPath id="d"><ellipse cx="7.991" cy="40.183" rx="7.548" ry="7.491" fill="#ccc" stroke-width=".379" stroke-linecap="round" stroke-linejoin="round"/></clipPath></defs><g fill="#216778"><g fill-opacity=".302"><path transform="matrix(.39615 0 0 .39615 2.93 2.702)" d="M25.854 9.428h-28.25l5.522-5.522h22.727" clip-path="url(#a)"/><path transform="matrix(.37086 0 0 .39615 3.583 2.702)" d="M25.853 19.812H-.345l-5.11-5.11h31.308" clip-path="url(#b)"/><path d="M2.123 26.695V19.12L28.88 45.877h-7.576z" clip-path="url(#c)" transform="rotate(-45 8.698 5.345) scale(.39615)"/><path transform="rotate(-45 8.698 5.345) scale(.39615)" clip-path="url(#d)" d="M2.123 33.967v11.91h11.91z"/></g><path d="M16.597 4.377c-.906 0-1.641.735-1.641 1.641v.656h-.329l-.656.002v3.937c0 .363.294.656.656.656h3.939a.659.659 0 0 0 .656-.656l.042-3.923-.698-.016h-.328v-.656c0-.906-.735-1.641-1.641-1.641zm0 .624c.56 0 1.017.456 1.017 1.017v.656h-2.035v-.656c0-.561.456-1.017 1.018-1.017z"/></g></svg>
